src/website/content/images/organisations/remotescout.svg

<svg xmlns="http://www.w3.org/2000/svg" width="400" height="100" viewBox="0 0 400 100" fill="none"><path d="M36.729 98.7757C37.5684 99.3698 38.5715 99.6889 39.6 99.6889C40.6284 99.6889 41.6315 99.3698 42.4709 98.7757C43.9757 97.7015 79.343 72.1688 79.1995 40.29C79.1995 18.455 61.4341 0.688965 39.6 0.688965C17.7658 0.688965 0.000435781 18.455 0.000435781 40.2702C-0.143112 72.1688 35.2242 97.7015 36.729 98.7757Z" fill="url(#paint0_linear_12969_2614)"/><g style="mix-blend-mode:multiply"><path fill-rule="evenodd" clip-rule="evenodd" d="M58.0006 25.4385H24.2061C22.3397 25.4385 20.8267 26.7049 20.8267 28.267V48.067L12.716 57.1184C11.8806 58.0508 12.6754 59.3813 14.0678 59.3813H21.2024L18.1609 62.7756C17.3254 63.7079 18.1203 65.0385 19.5127 65.0385H57.9774C59.2575 65.0385 60.4277 64.4331 61.0001 63.4749L66.8249 53.7242V33.9242C66.8249 32.362 65.3119 31.0956 63.4455 31.0956H61.3801V28.267C61.3801 26.7049 59.867 25.4385 58.0006 25.4385ZM61.3801 31.0956H29.651C27.7846 31.0956 26.2716 32.362 26.2716 33.9242V53.7242L21.2024 59.3813H52.5326C53.8126 59.3813 54.9828 58.776 55.5552 57.8177L61.3801 48.067V31.0956Z" fill="#00ADBB"/></g><path fill-rule="evenodd" clip-rule="evenodd" d="M61.3797 31.0967V48.0681L55.5548 57.8188C54.9824 58.777 53.8122 59.3824 52.5322 59.3824H21.2021L26.2713 53.7252V33.9252C26.2713 32.3631 27.7843 31.0967 29.6508 31.0967H61.3797Z" fill="#004E5E"/><path d="M115.855 66.8947L109.321 55.5097H105.559V66.8947H97.6387V32.2448H111.499C114.799 32.2448 117.604 33.3998 119.914 35.7098C122.224 38.0198 123.379 40.8247 123.379 44.1247C123.379 46.2367 122.785 48.2002 121.597 50.0152C120.442 51.7972 118.907 53.1832 116.993 54.1732L124.369 66.8947H115.855ZM105.559 39.6697V48.5797H111.499C112.588 48.5797 113.512 48.1507 114.271 47.2927C115.063 46.4347 115.459 45.3787 115.459 44.1247C115.459 42.8707 115.063 41.8147 114.271 40.9567C113.512 40.0987 112.588 39.6697 111.499 39.6697H105.559Z" fill="#004E5E"/><path d="M133.221 57.4897C134.079 59.7997 136.059 60.9547 139.161 60.9547C141.174 60.9547 142.758 60.3277 143.913 59.0737L149.853 62.4892C147.411 65.8882 143.814 67.5877 139.062 67.5877C134.904 67.5877 131.571 66.3502 129.063 63.8752C126.588 61.4002 125.351 58.2817 125.351 54.5197C125.351 50.7907 126.572 47.6887 129.014 45.2137C131.489 42.7057 134.657 41.4517 138.518 41.4517C142.115 41.4517 145.101 42.7057 147.477 45.2137C149.886 47.6887 151.091 50.7907 151.091 54.5197C151.091 55.5757 150.992 56.5657 150.794 57.4897H133.221ZM133.073 51.9457H143.715C142.989 49.3387 141.24 48.0352 138.468 48.0352C135.597 48.0352 133.799 49.3387 133.073 51.9457Z" fill="#004E5E"/><path d="M183.022 41.4517C185.86 41.4517 188.137 42.3922 189.853 44.2732C191.569 46.1212 192.427 48.5962 192.427 51.6982V66.8947H185.002V52.3417C185.002 51.0877 184.689 50.0977 184.062 49.3717C183.468 48.6457 182.593 48.2827 181.438 48.2827C180.217 48.2827 179.26 48.6952 178.567 49.5202C177.907 50.3452 177.577 51.4837 177.577 52.9357V66.8947H170.152V52.3417C170.152 51.0877 169.839 50.0977 169.212 49.3717C168.618 48.6457 167.743 48.2827 166.588 48.2827C165.367 48.2827 164.41 48.6952 163.717 49.5202C163.057 50.3452 162.727 51.4837 162.727 52.9357V66.8947H155.302V42.1447H162.727V44.4217C164.08 42.4417 166.291 41.4517 169.36 41.4517C172.231 41.4517 174.393 42.5407 175.845 44.7187C177.363 42.5407 179.755 41.4517 183.022 41.4517Z" fill="#004E5E"/><path d="M218.689 63.8257C216.148 66.3337 213.046 67.5877 209.383 67.5877C205.72 67.5877 202.618 66.3337 200.077 63.8257C197.536 61.2847 196.265 58.1827 196.265 54.5197C196.265 50.8567 197.536 47.7712 200.077 45.2632C202.618 42.7222 205.72 41.4517 209.383 41.4517C213.046 41.4517 216.148 42.7222 218.689 45.2632C221.23 47.7712 222.5 50.8567 222.5 54.5197C222.5 58.1827 221.23 61.2847 218.689 63.8257ZM205.324 58.7272C206.413 59.8162 207.766 60.3607 209.383 60.3607C211 60.3607 212.353 59.8162 213.442 58.7272C214.531 57.6382 215.075 56.2357 215.075 54.5197C215.075 52.8037 214.531 51.4012 213.442 50.3122C212.353 49.2232 211 48.6787 209.383 48.6787C207.766 48.6787 206.413 49.2232 205.324 50.3122C204.235 51.4012 203.69 52.8037 203.69 54.5197C203.69 56.2357 204.235 57.6382 205.324 58.7272Z" fill="#004E5E"/><path d="M240.72 49.2727H235.622V58.0342C235.622 59.0242 236.018 59.6512 236.81 59.9152C237.602 60.1792 238.905 60.2617 240.72 60.1627V66.8947C236.001 67.3897 232.734 66.9442 230.919 65.5582C229.104 64.1392 228.197 61.6312 228.197 58.0342V49.2727H224.237V42.1447H228.197V37.4423L235.622 37.4422V42.1447H240.72V49.2727Z" fill="#004E5E"/><path d="M251.074 57.4897C251.932 59.7997 253.912 60.9547 257.014 60.9547C259.027 60.9547 260.611 60.3277 261.766 59.0737L267.706 62.4892C265.264 65.8882 261.667 67.5877 256.915 67.5877C252.757 67.5877 249.424 66.3502 246.916 63.8752C244.441 61.4002 243.203 58.2817 243.203 54.5197C243.203 50.7907 244.424 47.6887 246.866 45.2137C249.341 42.7057 252.509 41.4517 256.37 41.4517C259.967 41.4517 262.954 42.7057 265.33 45.2137C267.739 47.6887 268.943 50.7907 268.943 54.5197C268.943 55.5757 268.844 56.5657 268.646 57.4897H251.074ZM250.925 51.9457H261.568C260.842 49.3387 259.093 48.0352 256.321 48.0352C253.45 48.0352 251.651 49.3387 250.925 51.9457Z" fill="#004E5E"/><path d="M284.563 67.5877C281.032 67.5877 278.078 66.8287 275.702 65.3107C273.359 63.7597 271.693 61.6642 270.703 59.0242L277.534 55.0642C278.92 58.2652 281.345 59.8657 284.81 59.8657C287.945 59.8657 289.513 58.9252 289.513 57.0442C289.513 56.0212 289.001 55.2292 287.978 54.6682C286.988 54.0742 285.107 53.3977 282.335 52.6387C280.883 52.2427 279.613 51.7972 278.524 51.3022C277.435 50.8072 276.362 50.1637 275.306 49.3717C274.283 48.5467 273.491 47.5237 272.93 46.3027C272.402 45.0817 272.138 43.6792 272.138 42.0952C272.138 38.8942 273.277 36.3368 275.554 34.4228C277.864 32.5088 280.603 31.5518 283.771 31.5518C286.609 31.5518 289.117 32.2283 291.295 33.5813C293.473 34.9013 295.189 36.8318 296.443 39.3727L289.76 43.2832C289.133 41.9632 288.358 40.9732 287.434 40.3132C286.51 39.6202 285.289 39.2737 283.771 39.2737C282.583 39.2737 281.659 39.5377 280.999 40.0657C280.372 40.5607 280.058 41.1712 280.058 41.8972C280.058 42.7552 280.454 43.4977 281.246 44.1247C282.071 44.7517 283.754 45.4447 286.295 46.2037C287.681 46.6327 288.754 46.9792 289.513 47.2432C290.272 47.5072 291.229 47.9527 292.384 48.5797C293.572 49.1737 294.463 49.8172 295.057 50.5102C295.684 51.1702 296.228 52.0612 296.69 53.1832C297.185 54.2722 297.433 55.5262 297.433 56.9452C297.433 60.2452 296.245 62.8522 293.869 64.7662C291.493 66.6472 288.391 67.5877 284.563 67.5877Z" fill="#004E5E"/><path d="M313.748 67.5877C309.986 67.5877 306.851 66.3337 304.343 63.8257C301.868 61.3177 300.631 58.2157 300.631 54.5197C300.631 50.8237 301.868 47.7217 304.343 45.2137C306.851 42.7057 309.986 41.4517 313.748 41.4517C316.124 41.4517 318.302 42.0292 320.282 43.1842C322.295 44.3392 323.846 45.8737 324.935 47.7877L318.451 51.5497C317.56 49.7017 315.959 48.7777 313.649 48.7777C312.032 48.7777 310.696 49.3222 309.64 50.4112C308.584 51.4672 308.056 52.8367 308.056 54.5197C308.056 56.2027 308.584 57.5887 309.64 58.6777C310.696 59.7337 312.032 60.2617 313.649 60.2617C315.992 60.2617 317.593 59.3377 318.451 57.4897L324.935 61.2022C323.846 63.1492 322.312 64.7002 320.332 65.8552C318.352 67.0102 316.157 67.5877 313.748 67.5877Z" fill="#004E5E"/><path d="M348.626 63.8257C346.085 66.3337 342.983 67.5877 339.32 67.5877C335.657 67.5877 332.555 66.3337 330.014 63.8257C327.473 61.2847 326.203 58.1827 326.203 54.5197C326.203 50.8567 327.473 47.7712 330.014 45.2632C332.555 42.7222 335.657 41.4517 339.32 41.4517C342.983 41.4517 346.085 42.7222 348.626 45.2632C351.167 47.7712 352.438 50.8567 352.438 54.5197C352.438 58.1827 351.167 61.2847 348.626 63.8257ZM335.261 58.7272C336.35 59.8162 337.703 60.3607 339.32 60.3607C340.937 60.3607 342.29 59.8162 343.379 58.7272C344.468 57.6382 345.013 56.2357 345.013 54.5197C345.013 52.8037 344.468 51.4012 343.379 50.3122C342.29 49.2232 340.937 48.6787 339.32 48.6787C337.703 48.6787 336.35 49.2232 335.261 50.3122C334.172 51.4012 333.628 52.8037 333.628 54.5197C333.628 56.2357 334.172 57.6382 335.261 58.7272Z" fill="#004E5E"/><path d="M372.626 42.1447H380.051V66.8947H372.626V64.5682C371.141 66.5812 368.781 67.5877 365.547 67.5877C362.907 67.5877 360.696 66.6802 358.914 64.8652C357.165 63.0502 356.291 60.5422 356.291 57.3412V42.1447H363.716V56.2522C363.716 57.7042 364.112 58.8262 364.904 59.6182C365.729 60.3772 366.768 60.7567 368.022 60.7567C369.441 60.7567 370.563 60.3277 371.388 59.4697C372.213 58.6117 372.626 57.3412 372.626 55.6582V42.1447Z" fill="#004E5E"/><path d="M400 49.2727H394.901V58.0342C394.901 59.0242 395.297 59.6512 396.089 59.9152C396.881 60.1792 398.185 60.2617 400 60.1627V66.8947C395.281 67.3897 392.014 66.9442 390.199 65.5582C388.384 64.1392 387.476 61.6312 387.476 58.0342V49.2727H383.516V42.1447H387.476V37.4423L394.901 37.4422V42.1447H400V49.2727Z" fill="#004E5E"/><defs><linearGradient id="paint0_linear_12969_2614" x1="39.6" y1="0.688965" x2="39.6" y2="99.6889" gradientUnits="userSpaceOnUse"><stop stop-color="#E0FDE1"/><stop offset="1" stop-color="#DAF9F7"/></linearGradient></defs></svg>

<svg xmlns="http://www.w3.org/2000/svg" width="400" height="100" fill="none"><path fill="url(#a)" d="M36.729 98.776a4.97 4.97 0 0 0 5.742 0C43.976 97.7 79.343 72.169 79.2 40.29 79.2 18.455 61.434.689 39.6.689 17.766.689 0 18.455 0 40.27c-.143 31.9 35.224 57.431 36.73 58.506Z"/><path fill="#00ADBB" fill-rule="evenodd" d="M58 25.439H24.207c-1.866 0-3.38 1.266-3.38 2.828v19.8l-8.11 9.051c-.835.933-.04 2.263 1.352 2.263h7.134l-3.041 3.395c-.836.932-.04 2.262 1.352 2.262h38.464c1.28 0 2.45-.605 3.023-1.563l5.825-9.75v-19.8c0-1.563-1.513-2.83-3.38-2.83H61.38v-2.828c0-1.562-1.513-2.828-3.38-2.828Zm3.38 5.657H29.651c-1.866 0-3.38 1.266-3.38 2.828v19.8l-5.069 5.657h31.33c1.28 0 2.45-.605 3.023-1.563l5.825-9.751V31.096Z" clip-rule="evenodd" style="mix-blend-mode:multiply"/><path fill="#004E5E" fill-rule="evenodd" d="M61.38 31.097v16.971l-5.825 9.75c-.573.959-1.743 1.564-3.023 1.564h-31.33l5.07-5.657v-19.8c0-1.562 1.512-2.828 3.379-2.828H61.38Z" clip-rule="evenodd"/><path fill="#004E5E" d="m115.855 66.895-6.534-11.385h-3.762v11.385h-7.92v-34.65h13.86c3.3 0 6.105 1.155 8.415 3.465 2.31 2.31 3.465 5.115 3.465 8.415 0 2.112-.594 4.075-1.782 5.89-1.155 1.782-2.69 3.168-4.604 4.158l7.376 12.722h-8.514ZM105.559 39.67v8.91h5.94c1.089 0 2.013-.43 2.772-1.287.792-.858 1.188-1.914 1.188-3.168 0-1.254-.396-2.31-1.188-3.168-.759-.858-1.683-1.287-2.772-1.287h-5.94Zm27.662 17.82c.858 2.31 2.838 3.465 5.94 3.465 2.013 0 3.597-.627 4.752-1.881l5.94 3.415c-2.442 3.4-6.039 5.099-10.791 5.099-4.158 0-7.491-1.238-9.999-3.713-2.475-2.475-3.712-5.593-3.712-9.355 0-3.73 1.221-6.831 3.663-9.306 2.475-2.508 5.643-3.762 9.504-3.762 3.597 0 6.583 1.254 8.959 3.762 2.409 2.475 3.614 5.577 3.614 9.306a14.16 14.16 0 0 1-.297 2.97h-17.573Zm-.148-5.544h10.642c-.726-2.607-2.475-3.91-5.247-3.91-2.871 0-4.669 1.303-5.395 3.91Zm49.949-10.494c2.838 0 5.115.94 6.831 2.821 1.716 1.848 2.574 4.323 2.574 7.425v15.197h-7.425V52.342c0-1.254-.313-2.244-.94-2.97-.594-.726-1.469-1.09-2.624-1.09-1.221 0-2.178.413-2.871 1.238-.66.825-.99 1.964-.99 3.416v13.959h-7.425V52.342c0-1.254-.313-2.244-.94-2.97-.594-.726-1.469-1.09-2.624-1.09-1.221 0-2.178.413-2.871 1.238-.66.825-.99 1.964-.99 3.416v13.959h-7.425v-24.75h7.425v2.277c1.353-1.98 3.564-2.97 6.633-2.97 2.871 0 5.033 1.089 6.485 3.267 1.518-2.178 3.91-3.267 7.177-3.267Zm35.667 22.374c-2.541 2.508-5.643 3.762-9.306 3.762-3.663 0-6.765-1.254-9.306-3.762-2.541-2.541-3.812-5.643-3.812-9.306 0-3.663 1.271-6.749 3.812-9.257 2.541-2.54 5.643-3.811 9.306-3.811 3.663 0 6.765 1.27 9.306 3.811 2.541 2.508 3.811 5.594 3.811 9.257 0 3.663-1.27 6.765-3.811 9.306Zm-13.365-5.099c1.089 1.09 2.442 1.634 4.059 1.634s2.97-.545 4.059-1.634 1.633-2.491 1.633-4.207c0-1.716-.544-3.119-1.633-4.208S211 48.68 209.383 48.68s-2.97.544-4.059 1.633c-1.089 1.09-1.634 2.492-1.634 4.208 0 1.716.545 3.118 1.634 4.207Zm35.396-9.454h-5.098v8.761c0 .99.396 1.617 1.188 1.881.792.264 2.095.347 3.91.248v6.732c-4.719.495-7.986.05-9.801-1.337-1.815-1.419-2.722-3.927-2.722-7.524v-8.761h-3.96v-7.128h3.96v-4.703h7.425v4.703h5.098v7.128Zm10.354 8.217c.858 2.31 2.838 3.465 5.94 3.465 2.013 0 3.597-.627 4.752-1.881l5.94 3.415c-2.442 3.4-6.039 5.099-10.791 5.099-4.158 0-7.491-1.238-9.999-3.713-2.475-2.475-3.713-5.593-3.713-9.355 0-3.73 1.221-6.831 3.663-9.306 2.475-2.508 5.643-3.762 9.504-3.762 3.597 0 6.584 1.254 8.96 3.762 2.409 2.475 3.613 5.577 3.613 9.306a14.16 14.16 0 0 1-.297 2.97h-17.572Zm-.149-5.544h10.643c-.726-2.607-2.475-3.91-5.247-3.91-2.871 0-4.67 1.303-5.396 3.91Zm33.638 15.642c-3.531 0-6.485-.76-8.861-2.277-2.343-1.551-4.009-3.647-4.999-6.287l6.831-3.96c1.386 3.201 3.811 4.802 7.276 4.802 3.135 0 4.703-.94 4.703-2.822 0-1.023-.512-1.815-1.535-2.376-.99-.594-2.871-1.27-5.643-2.03-1.452-.395-2.722-.84-3.811-1.336a17.32 17.32 0 0 1-3.218-1.93 8.376 8.376 0 0 1-2.376-3.07c-.528-1.22-.792-2.623-.792-4.207 0-3.2 1.139-5.758 3.416-7.672 2.31-1.914 5.049-2.871 8.217-2.871 2.838 0 5.346.676 7.524 2.03 2.178 1.32 3.894 3.25 5.148 5.79l-6.683 3.911c-.627-1.32-1.402-2.31-2.326-2.97-.924-.693-2.145-1.04-3.663-1.04-1.188 0-2.112.265-2.772.793-.627.495-.941 1.105-.941 1.831 0 .858.396 1.6 1.188 2.228.825.627 2.508 1.32 5.049 2.079 1.386.429 2.459.775 3.218 1.04.759.263 1.716.709 2.871 1.336 1.188.594 2.079 1.237 2.673 1.93.627.66 1.171 1.551 1.633 2.673.495 1.09.743 2.343.743 3.762 0 3.3-1.188 5.907-3.564 7.821-2.376 1.881-5.478 2.822-9.306 2.822Zm29.185 0c-3.762 0-6.897-1.254-9.405-3.762-2.475-2.508-3.712-5.61-3.712-9.306 0-3.696 1.237-6.798 3.712-9.306 2.508-2.508 5.643-3.762 9.405-3.762 2.376 0 4.554.577 6.534 1.732 2.013 1.155 3.564 2.69 4.653 4.604l-6.484 3.762c-.891-1.848-2.492-2.772-4.802-2.772-1.617 0-2.953.544-4.009 1.633-1.056 1.056-1.584 2.426-1.584 4.109 0 1.683.528 3.069 1.584 4.158 1.056 1.056 2.392 1.584 4.009 1.584 2.343 0 3.944-.924 4.802-2.772l6.484 3.712c-1.089 1.947-2.623 3.498-4.603 4.653-1.98 1.155-4.175 1.733-6.584 1.733Zm34.878-3.762c-2.541 2.508-5.643 3.762-9.306 3.762-3.663 0-6.765-1.254-9.306-3.762-2.541-2.541-3.811-5.643-3.811-9.306 0-3.663 1.27-6.749 3.811-9.257 2.541-2.54 5.643-3.811 9.306-3.811 3.663 0 6.765 1.27 9.306 3.811 2.541 2.508 3.812 5.594 3.812 9.257 0 3.663-1.271 6.765-3.812 9.306Zm-13.365-5.099c1.089 1.09 2.442 1.634 4.059 1.634s2.97-.545 4.059-1.634 1.634-2.491 1.634-4.207c0-1.716-.545-3.119-1.634-4.208s-2.442-1.633-4.059-1.633-2.97.544-4.059 1.633c-1.089 1.09-1.633 2.492-1.633 4.208 0 1.716.544 3.118 1.633 4.207Zm37.365-16.582h7.425v24.75h-7.425v-2.327c-1.485 2.013-3.845 3.02-7.079 3.02-2.64 0-4.851-.908-6.633-2.723-1.749-1.815-2.623-4.323-2.623-7.524V42.145h7.425v14.107c0 1.452.396 2.574 1.188 3.366.825.76 1.864 1.139 3.118 1.139 1.419 0 2.541-.43 3.366-1.287.825-.858 1.238-2.129 1.238-3.812V42.145ZM400 49.273h-5.099v8.761c0 .99.396 1.617 1.188 1.881.792.264 2.096.347 3.911.248v6.732c-4.719.495-7.986.05-9.801-1.337-1.815-1.419-2.723-3.927-2.723-7.524v-8.761h-3.96v-7.128h3.96v-4.703h7.425v4.703H400v7.128Z"/><defs><linearGradient id="a" x1="39.6" x2="39.6" y1=".689" y2="99.689" gradientUnits="userSpaceOnUse"><stop stop-color="#E0FDE1"/><stop offset="1" stop-color="#DAF9F7"/></linearGradient></defs></svg>
